source/img/run.svg

<svg enable-background="new 0 0 20 21" viewBox="0 0 20 21" xmlns="http://www.w3.org/2000/svg"><ellipse cx="14.3" cy="2" rx="2.1" ry="2"/><path d="m19.4 4.6c-.5-.2-1.2-.1-1.4.4l-.9 1.6-4.1-2.3c-.2-.1-.3-.1-.6-.1h-4.5c-.4 0-.7.1-.9.5l-1.7 2.9c-.3.5-.1 1.1.4 1.3.2.1.4.1.5.1.4 0 .8-.2 1-.5l1.4-2.4h1.6l-4.7 8.1h-4.4c-.6 0-1.1.4-1.1 1s.5 1 1.1 1h5c.4 0 .7-.2.9-.5l1.9-3.2 3 2.6-.2 4.9c-.1.5.4 1 1 1h.1c.6 0 1-.4 1.1-.9l.3-5.4c0-.3-.1-.6-.3-.8l-2.6-2.2 2.7-4.6 3.1 1.8c0 .1.4.2.6.1.3-.1.5-.2.7-.5l1.5-2.5c.3-.5.1-1.1-.5-1.4z"/></svg>

<?xml version="1.0" encoding="utf-8"?>
<!-- Generator: Adobe Illustrator 21.0.0, SVG Export Plug-In . SVG Version: 6.00 Build 0)  -->
<svg version="1.1" id="Icons_Run" xmlns="http://www.w3.org/2000/svg" xmlns:xlink="http://www.w3.org/1999/xlink" x="0px" y="0px"
	 viewBox="0 0 20 21" style="enable-background:new 0 0 20 21;" xml:space="preserve">
<g>
	<ellipse cx="14.3" cy="2" rx="2.1" ry="2"/>
	<path d="M19.4,4.6c-0.5-0.2-1.2-0.1-1.4,0.4l-0.9,1.6L13,4.3c-0.2-0.1-0.3-0.1-0.6-0.1H7.9C7.5,4.2,7.2,4.3,7,4.7L5.3,7.6
		C5,8.1,5.2,8.7,5.7,8.9C5.9,9,6.1,9,6.2,9C6.6,9,7,8.8,7.2,8.5l1.4-2.4h1.6l-4.7,8.1H1.1c-0.6,0-1.1,0.4-1.1,1s0.5,1,1.1,1h5
		c0.4,0,0.7-0.2,0.9-0.5l1.9-3.2l3,2.6L11.7,20c-0.1,0.5,0.4,1,1,1c0,0,0,0,0.1,0c0.6,0,1-0.4,1.1-0.9l0.3-5.4
		c0-0.3-0.1-0.6-0.3-0.8l-2.6-2.2l2.7-4.6l3.1,1.8C17.1,9,17.5,9.1,17.7,9c0.3-0.1,0.5-0.2,0.7-0.5L19.9,6C20.2,5.5,20,4.9,19.4,4.6
		z"/>
</g>
</svg>
